X:6046
T:Silver Spear, The
O:england
M:C|
L:1/8
Q:242
R:reel
K:D
Bd|:eA A/2A/2A BABd|egfd ed (3Bcd|eA A/2A/2A BABd|dfed Bcdg|
eA A/2A/2A BABd|edfd ed (3Bcd|f~g2e ~f3e|dfed Bcdf:|
:~a2 fa bafa|~a2fd edBd|~a2fa bafa|adfd efdf|
~a2 fa bafa|~a2fd edBd|gbbg faaf|1dfed dBAf:|2dfed Bcdf||


